X: 32900
T: Pot Holes, The
R: reel
M: 4/4
K: Dmajor
|:(3ABc|dD (3DDD F2 AF|GBdB AFDF|G2 ge F2 g2|gdBA ^GABc|
dD (3DDD F2 AF|GBdB AFDF|GABG FADF|EA,CE D2:|
|:z2|Adfd ec (3ABc|dAFA BGEG|Aegf edcB|(3cBA ^GB A2 fg|
fddd ec (3ABc|dAFA BGEG|FADF EA,CE|EDCE D2:|

